X:1
T:61.   Lobe den Herren, den mächtigen König der Ehren.
T:61.   Lobe den Herren, den mächtigen König der Ehren.
T:J. G. Walther
T:F-Dur
C:J. G. Walther
%%score { ( 1 3 5 6 ) | ( 2 4 7 ) }
L:1/8
Q:1/4=160
M:3/2
K:F
V:1 treble nm="Flügel" snm="Flgl."
V:3 treble 
V:5 treble 
V:6 treble 
V:2 bass 
V:4 bass 
V:7 bass 
V:1
"_(164)""^Moderato" z12 |: z12 | z12 | z2 C2 C2 F2 E2 C2 | A,2 F,2 C2 DE D2 EF | E2 D2 PD8 | %6
 C8- C2 A,2 | G,4 z2 F,2 C4- | C2 A,B, C8- | C2 CD EFEF DEDE | C6 =B,2 C4- | A2 FG ABAB cdcd | %12
 B2 GA BcBc dede | [Acf]12 :| z2 C2 C2 F2 PE2 C2- | z2 F2 F2 c2 A2 F2 | PE2 CD EFEF GAGA | %17
 F2 DE FGFG A=BAB | c2 FG ABAB GAGA | c4 c4 c4 | [FBd]12 | z12 | z12 | z4 E2 F2 G4- | %24
 G2 FE F2 E2 D2 ED | A6 _B2 c4 | c6 B2 A4 | G8 z4 | MD12 | z12 | z12 | z2 C4 D4 E2- | E2 F4 G2 A4 | %33
 G12 | F8 F4- | F2 EF GAGA BcBc | A2 AB cdcd BcBc | A2 FG ABAB GAGA | [CF]12 |] %39
V:2
 z2 F,2 F,2 C2 A,2 F,2 |: E,2 C,2 F,2 G,A, G,2 A,B, | A,2 G,2 PG,8 | F,4 A,,4 C,4 | F,,4 A,4 =B,4 | %5
 C6 _B,A, B,4- | B,2 A,G, A,2 E,2 F,4 | C,4 D,4 E,4 |"_Ped." F,8 E,4 | F,2 F,2 C2 B,2 A,4 | %10
 G,6 F,2 G,2 E,2 | F,2 A,B, C6 C2 | D2 B,C D2 D2 G,2[I:staff -1] G2 | %13
[I:staff +1] z2 F,2 F,2 C2 A,2 F,2 :| PE,2 C,2 F,2 G,A, G,2 A,B, | A,6 E,2 F,4 | %16
"_Ped." C,2 E,F, G,A,G,A, B,CB,C | A,2 F,G, A,2 D,E, F,G,F,G, | A,4 F,4 z4 | %19
 z2 F,2 F,2 C2 A,2 F,2 | D,2 B,,2 B,,2 F,2 D,2 B,,2 | z4 A,2 B,2 C4- | C2 B,A, B,2 C2 A,2 B,A, | %23
 G,4[I:staff -1] C6[I:staff +1] B,2 | A,4[I:staff -1] D2 C2 =B,4 | C6 D2 E4- | %26
"_Ped."[I:staff +1] A,4 x2 D,2 E,2 F,2- | F,2 E,D, E,4 F,2 C,2- | C,2 B,,A,, B,,C,B,,C, D,E,D,E, | %29
 F,2 C,2 F,6 G,2 | A,2 B,2 A,2 G,2 F,2 G,F, | E,4 F,4 G,4 | A,4 B,4 F,2 A,2 |"_Ped." C8- CB,PA,G, | %34
 A,2 F,G, A,B,A,B,[I:staff -1] CDCD | B,4- B,CB,C DEDE | F2[I:staff +1] F,G, A,B,A,B, G,A,G,A, | %37
 F,2 A,[I:staff -1]B, CDCD B,CB,C |[I:staff +1] A,12 |] %39
V:3
 x12 |: x12 | x12 | x12 | x12 | x12 | z2 F2 F2 c2 A2 F2 | PE2 C2 F2 GA G2 AB | A2 FG ABAB GAGA | %9
 F4 z8 | z2 c2 c2 f2 Pe2 c2 | x12 | x12 | x12 :| x12 | x12 | x12 | x12 | x12 | F4 A4 A4 | x12 | %21
 x12 | x12 | x12 | x12 | x12 | x12 | x12 | x12 | x12 | x12 | x12 | x12 | x12 | x12 | x12 | x12 | %37
 x12 | x12 |] %39
V:4
 x12 |: x12 | x12 | x12 | x12 | x12 | x12 | x12 | F,,4 F,,4 C,4 | A,,6 G,,2 F,,4 | E,,6 D,,2 C,,4 | %11
 F,,6 G,,2 A,,4 | G,,12 | F,,12 :| x12 | x12 | C,4 C,4 C,4 | D,12 | x12 | x12 | z2 B,,2 B,8 | %21
 A,,2 F,,2 F,4 E,2 F,2 | G,6 F,E, F,2 G,F, | E,2 D,2 C,2 D,2 E,4 | F,4 D,4 G,4- | %25
 G,2 F,E, F,4 E,2 D,2 | C,6 B,,2 C,4 | C,6 B,,2 A,,4 | G,,12 | x12 | x12 | x12 | x12 | %33
 C,,4 D,,4 E,,4 | F,,6 G,,2 A,,4 | G,,12 | F,,12- | F,,12- | F,,12 |] %39
V:5
 x12 |: x12 | x12 | x12 | x12 | x12 | x12 | x12 | x12 | x12 | x12 | C4 F4 E2 F2 | G4 z2 G2 B4 | %13
 x12 :| x12 | C2 C4 G,2 F,2 A,2 | G,4 C4 E4 | D12 | z2 C2 C2 F2 E2 C2 | %19
 A,2[I:staff +1] F,2[I:staff -1] x8 | x12 | x12 | x12 | x12 | x12 | x12 | E2 C2 F4 z4 | C4 C4 C4 | %28
 z4 z2 G,A, B,CB,C | PA,6 G,2 A,2 B,2 | C2 D2 C2 B,2 A,2 B,A, | G,4 A,4 B,4 | C4 D2 E2 F4- | %33
 F2 F2 PEFED C4- | C2 A,B, C4 x4 | x12 | x12 | x12 | x12 |] %39
V:6
 x12 |: x12 | x12 | x12 | x12 | x12 | x12 | x12 | x12 | x12 | x12 | x12 | x12 | x12 :| x12 | x12 | %16
 x12 | x12 | x12 | x4 F4 F4 | x12 | x12 | x12 | x12 | x12 | x12 | x12 | x12 | x12 | x12 | x12 | %31
 x12 | x12 | x12 | x12 | x12 | x12 | x12 | x12 |] %39
V:7
 x12 |: x12 | x12 | x12 | x12 | x12 | x12 | x12 | x12 | x12 | x12 | x12 | x12 | x12 :| x12 | x12 | %16
 x12 | x12 | x12 | x12 | x12 | x12 | x12 | x12 | x12 | A,4 z4 G,4 | A,,6 x2 x4 | x12 | x12 | x12 | %30
 x12 | x12 | x12 | x12 | x12 | x12 | x12 | x12 | x12 |] %39

